!!!COM: Robert Schumann
!!!OTL: The Happy Farmer
**kern	**dynam	**kern	**dynam
*part2	*part2	*part1	*part1
*staff2	*	*staff1	*
*clefF4	*	*clefG2	*
*k[b-]	*	*k[b-]	*
*M4/4	*	*M4/4	*
(>8C	.	8r	f
=1	=1	=1	=1
4.F	.	8r	.
.	.	8c 8f 8a	.
.	.	8c 8f 8a	.
8A	.	8r	.
4.c	.	8r	.
.	.	8f 8a 8cc	.
.	.	8f 8a 8cc	.
8A	.	8r	.
=2	=2	=2	=2
8B-yL	.	8r	.
8d	.	8f 8b-y 8dd	.
8f	.	8b-y 8dd	.
8dJ	.	8r	.
4.c)	.	8r	.
.	.	8f 8a 8cc	.
.	.	8f 8a 8cc	.
(>8A	.	8r	.
=3	=3	=3	=3
8B-yL	.	8r	.
8G	.	8e 8b-y 8cc	.
8C	.	4e 4b-y 4cc	.
8B-yJ	.	.	.
8AL	.	8r	.
8F	.	8c 8f 8a	.
8C	.	4c 4f 4a	.
8AJ	.	.	.
=4	=4	=4	=4
4E	.	8r	.
.	.	8c 8g	.
4D	.	8r	.
.	.	8f 8g 8bn	.
4C)	.	8r	.
.	.	8e 8g 8cc	.
8r	.	4e 4g 4cc	.
(>8C	.	.	.
=5	=5	=5	=5
4.F	.	8r	.
.	.	8c 8f 8a	.
.	.	8c 8f 8a	.
8A	.	8r	.
4.c	.	8r	.
.	.	8f 8a 8cc	.
.	.	8f 8a 8cc	.
8A	.	8r	.
=6	=6	=6	=6
8B-yL	.	8r	.
8d	.	8f 8b-y 8dd	.
8f	.	8b-y 8dd	.
8dJ	.	8r	.
4.c)	.	8r	.
.	.	8f 8a 8cc	.
.	.	8f 8a 8cc	.
(>8A	.	8r	.
=7	=7	=7	=7
8B-yL	.	8r	.
8G	.	8e 8b-y 8cc	.
8C	.	4e 4b-y 4cc	.
8B-yJ	.	.	.
8AL	.	8r	.
8F	.	8c 8f 8a	.
8C	.	4c 4f 4a	.
8AJ	.	.	.
=8	=8	=8	=8
4E	.	8r	.
.	.	8c 8g	.
4D	.	8r	.
.	.	8f 8g 8bn	.
4C)	.	8r	.
.	.	8e 8g 8cc	.
8r	.	8e 8g 8cc	.
(8C	.	(>8c	.
=9	=9	=9	=9
!	!	!LO:TX:i:t=espressivo	!
*	*	*^	*
4.G^>	.	8r	4.b-y^>	.
.	.	8c 8e	.	.
.	.	8c 8e	.	.
8F	.	8r	8a	.
4.E)	.	8r	4.g)	.
.	.	8B- 8c	.	.
.	.	8B-y 8c	.	.
(>8C	.	8r	(>8c	.
=10	=10	=10	=10	=10
8G^>	f	8r	8b-^>	f
8F'>	.	8c	8a'>	.
8E'>	.	8c	8g'>)	.
8D'>	.	8Bn	8f'>	.
4.E)	.	8r	4.g	.
.	.	8c	.	.
.	.	8c	.	.
8C	.	8r	8c	.
=11	=11	=11	=11	=11
4.F	.	8r	4.f	.
.	.	8A 8c	.	.
.	.	8A 8c	.	.
8A	.	8r	8a	.
4.c	.	8r	4.cc	.
.	.	8f 8a	.	.
.	.	8f 8a	.	.
(>(>8F	.	8r	8f	.
=12	=12	=12	=12	=12
8B-yL	.	8r	8b-yL	.
8d	.	8f 8b-y	8dd	.
8f	.	8r	8ff	.
8dJ	.	8f 8b-y	8ddJ	.
4.c)	.	8r	4.cc)	.
.	.	8f 8a	.	.
.	.	8f 8a	.	.
(>8A	.	8r	8r	.
*	*	*v	*v	*
=13	=13	=13	=13
8B-yL	.	8r	.
8G	.	8e 8b-y 8cc	.
8C	.	4e 4b-y 4cc	.
8B-yJ	.	.	.
8AL	.	8r	.
8F	.	8c 8f 8a	.
8C	.	8c 8f 8a	.
8AJ	.	8c 8f 8a	.
=14	=14	=14	=14
*^	*	*	*
4BB-y	4G	.	8r	.
.	.	.	8d 8g	.
4C	4E	.	8r	.
.	.	.	8B-y 8c	.
4F	4F)	.	8r	.
.	.	.	8A 8c 8f	.
*v	*v	*	*	*
8r	.	8A 8c 8f	.
(>8C	.	(>8c	.
=15	=15	=15	=15
*	*	*^	*
4.G^>	.	8r	4.b-y^>	.
.	.	8c 8e	.	.
.	.	8c 8e	.	.
8F	.	8r	8a	.
4.E)	.	8r	4.g)	.
.	.	8B-y 8c	.	.
.	.	8B-y 8c	.	.
(>8C	.	8r	(>8c	.
=16	=16	=16	=16	=16
8G^>	.	8r	8b-'>	.
8F'>	.	8c	8a'>	.
8E'>	.	8c	8g'>	.
8D'>	.	8Bn	8f'>	.
4.E)	.	8r	4.g)	.
.	.	8c	.	.
.	.	(>8c	.	.
(>8C	.	8r	8c	.
=17	=17	=17	=17	=17
4.F)	.	8r	4.f)	.
.	.	8A 8c	.	.
.	.	8A 8c	.	.
(>8A	.	8r	(>8a	.
4.c)	.	8r	4.cc)	.
.	.	8f 8a	.	.
.	.	8f 8a	.	.
(>8F	.	8r	(>8f	.
=18	=18	=18	=18	=18
8B-yL	.	8r	8b-yL	.
8d	.	8f 8b-y	8dd	.
8f	.	8r	8ff	.
8dJ	.	8f 8b-y	8ddJ	.
4.c))	.	8r	4.cc	.
.	.	8fL 8a	.	.
.	.	8fJ 8a	.	.
(>8A	.	8r	8r	.
*	*	*v	*v	*
=19	=19	=19	=19
8B-yL	.	8r	.
8G	.	8e 8b-y 8cc	.
8C	.	4e 4b-y 4cc	.
8B-yJ	.	.	.
8AL	.	8r	.
8F	.	8c 8f 8a	.
8C	.	8c 8f 8a	.
8AJ	.	8c 8f 8a	.
=20	=20	=20	=20
*^	*	*	*
4BB-y	4G	.	8r	.
.	.	.	8d 8g	.
4C	4E	.	8r	.
.	.	.	8B-y 8c	.
4F	4F)	.	8r	.
.	.	.	8A 8c 8f	.
*v	*v	*	*	*
4r	.	8A 8c 8f	.
.	.	8r	.
==	==	==	==
*-	*-	*-	*-
!!!RDF**kern: > = above
